AC Photobooth 3.lrtemplate
s = {
	id = "A7B05C09-48CE-47D1-8E12-033B2A9ABF8E",
	internalName = "AC Photobooth 3",
	title = "AC Photobooth 3",
	type = "Develop",
	value = {
		settings = {
			AutoLateralCA = 1,
			Blacks2012 = 15,
			BlueHue = 0,
			BlueSaturation = 0,
			CameraProfile = "Adobe Standard",
			ChromaticAberrationB = 0,
			ChromaticAberrationR = 0,
			Clarity2012 = 9,
			ColorNoiseReduction = 40,
			ColorNoiseReductionDetail = 50,
			Contrast2012 = 60,
			ConvertToGrayscale = false,
			Defringe = 0,
			EnableCalibration = true,
			EnableColorAdjustments = true,
			EnableDetail = true,
			EnableEffects = true,
			EnableLensCorrections = true,
			EnableSplitToning = true,
			Exposure2012 = 0,
			GrainAmount = 29,
			GrainFrequency = 33,
			GrainSize = 2,
			GreenHue = 0,
			GreenSaturation = 0,
			Highlights2012 = 0,
			HueAdjustmentAqua = 0,
			HueAdjustmentBlue = 0,
			HueAdjustmentGreen = 0,
			HueAdjustmentMagenta = 0,
			HueAdjustmentOrange = 0,
			HueAdjustmentPurple = 0,
			HueAdjustmentRed = 0,
			HueAdjustmentYellow = 0,
			LuminanceAdjustmentAqua = 0,
			LuminanceAdjustmentBlue = -5,
			LuminanceAdjustmentGreen = -5,
			LuminanceAdjustmentMagenta = 0,
			LuminanceAdjustmentOrange = 5,
			LuminanceAdjustmentPurple = 0,
			LuminanceAdjustmentRed = 5,
			LuminanceAdjustmentYellow = -5,
			LuminanceNoiseReductionContrast = 0,
			LuminanceNoiseReductionDetail = 50,
			LuminanceSmoothing = 25,
			ParametricDarks = 40,
			ParametricHighlightSplit = 75,
			ParametricHighlights = -10,
			ParametricLights = 0,
			ParametricMidtoneSplit = 50,
			ParametricShadowSplit = 25,
			ParametricShadows = -15,
			PostCropVignetteAmount = -17,
			PostCropVignetteFeather = 93,
			PostCropVignetteHighlightContrast = 0,
			PostCropVignetteMidpoint = 50,
			PostCropVignetteRoundness = 75,
			PostCropVignetteStyle = 2,
			ProcessVersion = "6.7",
			RedHue = 0,
			RedSaturation = 0,
			Saturation = 0,
			SaturationAdjustmentAqua = 10,
			SaturationAdjustmentBlue = 10,
			SaturationAdjustmentGreen = 10,
			SaturationAdjustmentMagenta = 0,
			SaturationAdjustmentOrange = -5,
			SaturationAdjustmentPurple = 0,
			SaturationAdjustmentRed = -5,
			SaturationAdjustmentYellow = 0,
			ShadowTint = 0,
			Shadows2012 = 0,
			SharpenDetail = 50,
			SharpenEdgeMasking = 20,
			SharpenRadius = 3,
			Sharpness = 37,
			SplitToningBalance = 0,
			SplitToningHighlightHue = 44,
			SplitToningHighlightSaturation = 28,
			SplitToningShadowHue = 0,
			SplitToningShadowSaturation = 8,
			ToneCurveName2012 = "Custom",
			ToneCurvePV2012 = {
				0,
				0,
				17,
				26,
				34,
				44,
				51,
				60,
				68,
				74,
				85,
				89,
				102,
				105,
				119,
				120,
				136,
				135,
				153,
				151,
				170,
				167,
				187,
				183,
				204,
				200,
				221,
				218,
				238,
				236,
				255,
				255,
			},
			ToneCurvePV2012Blue = {
				0,
				0,
				255,
				255,
			},
			ToneCurvePV2012Green = {
				0,
				0,
				255,
				255,
			},
			ToneCurvePV2012Red = {
				0,
				0,
				255,
				255,
			},
			Vibrance = 30,
			VignetteAmount = 0,
			VignetteMidpoint = 50,
			WhiteBalance = "As Shot",
			Whites2012 = 0,
		},
		uuid = "1BD060AF-2504-471F-AFFF-4C6E8070F9C3",
	},
	version = 0,
}
